X: 21
T: Marchioness of Headfort's Waltz
%R: waltz
B: "Twenty Four Country Dances with Figures for the Year 1813", Button & Whitaker, p.21 #1
F: http://www.vwml.org/browse/browse-collections-dance-tune-books/browse-button1813
Z: 2015 John Chambers <jc:trillian.mit.edu>
N: The Figures by Mr WILSON.
N: The left edge is blurred, making some words illegible.
M: 3/8
L: 1/8
K: C
% - - - - - - - - - - - - - - - - - - - - - - - - - - - - -
G |\
cee | cee | fAd | B/c/A/B/G |\
cee | cee | fAB | c2 :|\
|: d |\
d/c/Bd | d/c/Bg | g^fe | edd |
cDD | BDD | Ac^F | G2 :|\
|: G |\
=FFd | EEc | Afd | cBG |\
c/d/e/f/g | c/d/e/f/g | dfB | c2 :|
% - - - - - - - - - - Dance description - - - - - - - - - -
%%text SINGLE FIGURE (Each strain repeated)
%%begintext align
%% Hands across & back again :| lead down the mid: up
%% again lead thro' the top Cu: |: & turn corners |: .
%%endtext
%%text DOUBLE FIGURE (Tune play'd twice thro' with repeats)
%%begintext align
%% ??? figure 6 round :| promenade 3 Cu: |: whole figure on your own sides |:
%% ??? Ladies & 3 Gent: set & lead thro' & back again |: whole poussette |: & lead out.s |: .
%%endtext

%%sep 2 1 500
%%sep 1 1 500

